humanity-icon-theme/Humanity/mimes/16/application-vnd.ms-access.svg

<?xml version="1.0" encoding="UTF-8" standalone="no"?>
<!-- Created with Inkscape (http://www.inkscape.org/) -->
<svg
   xmlns:svg="http://www.w3.org/2000/svg"
   xmlns="http://www.w3.org/2000/svg"
   xmlns:xlink="http://www.w3.org/1999/xlink"
   version="1.0"
   width="16"
   height="16"
   id="svg3481">
  <defs
     id="defs3483">
    <linearGradient
       id="linearGradient4711-257">
      <stop
         id="stop4963"
         style="stop-color:#643340;stop-opacity:1"
         offset="0" />
      <stop
         id="stop4965"
         style="stop-color:#a77a86;stop-opacity:1"
         offset="1" />
    </linearGradient>
    <linearGradient
       x1="-51.786404"
       y1="53.623615"
       x2="-51.786404"
       y2="2.9062471"
       id="linearGradient3451"
       xlink:href="#linearGradient4711-257"
       gradientUnits="userSpaceOnUse"
       gradientTransform="matrix(0.2768636,0,0,0.3050233,19.641,-0.68561)" />
    <linearGradient
       id="linearGradient4145-42">
      <stop
         id="stop4953"
         style="stop-color:#e694bb;stop-opacity:1"
         offset="0" />
      <stop
         id="stop4955"
         style="stop-color:#d3819a;stop-opacity:1"
         offset="0.26238" />
      <stop
         id="stop4957"
         style="stop-color:#b25a64;stop-opacity:1"
         offset="0.704952" />
      <stop
         id="stop4959"
         style="stop-color:#98313d;stop-opacity:1"
         offset="1" />
    </linearGradient>
    <radialGradient
       cx="14.239056"
       cy="11.49049"
       r="18.000002"
       fx="14.239056"
       fy="11.49049"
       id="radialGradient3449"
       xlink:href="#linearGradient4145-42"
       gradientUnits="userSpaceOnUse"
       gradientTransform="matrix(0,1.0834925,-1.816687,0,24.708827,-13.135239)" />
    <linearGradient
       id="linearGradient3211">
      <stop
         id="stop3213"
         style="stop-color:#ffffff;stop-opacity:1"
         offset="0" />
      <stop
         id="stop3215"
         style="stop-color:#ffffff;stop-opacity:0"
         offset="1" />
    </linearGradient>
    <linearGradient
       x1="24"
       y1="1.9999999"
       x2="24"
       y2="46.01725"
       id="linearGradient2666"
       xlink:href="#linearGradient3211"
       gradientUnits="userSpaceOnUse"
       gradientTransform="matrix(0.2727267,0,0,0.302325,1.4545607,0.7441991)" />
    <linearGradient
       id="linearGradient8589">
      <stop
         id="stop8591"
         style="stop-color:#fefefe;stop-opacity:1"
         offset="0" />
      <stop
         id="stop8593"
         style="stop-color:#cbcbcb;stop-opacity:1"
         offset="1" />
    </linearGradient>
    <linearGradient
       x1="32.892288"
       y1="8.0590115"
       x2="36.358372"
       y2="5.4565363"
       id="linearGradient2662"
       xlink:href="#linearGradient8589"
       gradientUnits="userSpaceOnUse"
       gradientTransform="matrix(0.3091956,0,0,0.3766935,0.4761461,0.1071779)" />
    <linearGradient
       id="linearGradient8265-821-176-38-919-66-249">
      <stop
         id="stop2687"
         style="stop-color:#ffffff;stop-opacity:1"
         offset="0" />
      <stop
         id="stop2689"
         style="stop-color:#ffffff;stop-opacity:0"
         offset="1" />
    </linearGradient>
    <linearGradient
       x1="16.626165"
       y1="15.298182"
       x2="20.054544"
       y2="24.627615"
       id="linearGradient2645"
       xlink:href="#linearGradient8265-821-176-38-919-66-249"
       gradientUnits="userSpaceOnUse"
       gradientTransform="matrix(0.2394557,0,0,0.4823445,1.7530613,-1.8789938)" />
    <linearGradient
       id="linearGradient4267">
      <stop
         id="stop4269"
         style="stop-color:#c4c4c4;stop-opacity:1"
         offset="0" />
      <stop
         id="stop4271"
         style="stop-color:#c4c4c4;stop-opacity:0"
         offset="1" />
    </linearGradient>
    <linearGradient
       x1="35.516502"
       y1="4.8577352"
       x2="34.102982"
       y2="6.5436172"
       id="linearGradient2639"
       xlink:href="#linearGradient4267"
       gradientUnits="userSpaceOnUse"
       gradientTransform="matrix(0.3428665,0,0,0.3408721,-0.6875871,0.3295305)" />
    <linearGradient
       id="linearGradient4000">
      <stop
         id="stop4002"
         style="stop-color:#000000;stop-opacity:1"
         offset="0" />
      <stop
         id="stop4004"
         style="stop-color:#000000;stop-opacity:0"
         offset="1" />
    </linearGradient>
    <linearGradient
       x1="75.854454"
       y1="28"
       x2="91"
       y2="12"
       id="linearGradient3473"
       xlink:href="#linearGradient4000"
       gradientUnits="userSpaceOnUse"
       gradientTransform="matrix(0.3854723,0,0,0.3169496,-20.882487,1.5818983)"
       spreadMethod="reflect" />
    <linearGradient
       id="linearGradient5293">
      <stop
         id="stop5295"
         style="stop-color:#ffffff;stop-opacity:1"
         offset="0" />
      <stop
         id="stop5297"
         style="stop-color:#ffffff;stop-opacity:0"
         offset="1" />
    </linearGradient>
    <linearGradient
       x1="75.854454"
       y1="28"
       x2="91"
       y2="12"
       id="linearGradient3470"
       xlink:href="#linearGradient5293"
       gradientUnits="userSpaceOnUse"
       gradientTransform="matrix(0.3854723,0,0,0.3169496,-20.882487,1.1987566)"
       spreadMethod="reflect" />
    <linearGradient
       id="linearGradient4106">
      <stop
         id="stop4108"
         style="stop-color:#51293c;stop-opacity:1"
         offset="0" />
      <stop
         id="stop4110"
         style="stop-color:#876374;stop-opacity:1"
         offset="1" />
    </linearGradient>
    <linearGradient
       x1="24.239185"
       y1="44.110138"
       x2="24.239185"
       y2="0.19081046"
       id="linearGradient3466"
       xlink:href="#linearGradient4106"
       gradientUnits="userSpaceOnUse"
       gradientTransform="matrix(0.352981,0,0,0.3657592,0.4350114,-0.6752536)" />
  </defs>
  <g
     id="layer1">
    <path
       d="M 1.5,0.4999664 C 4.0206756,0.4999664 7.4205035,0.4999664 9.9411815,0.4999664 C 10.383361,0.6617599 12.879694,2.6328115 13.500013,3.9090875 C 13.500013,7.8153335 13.500039,11.593785 13.500039,15.500034 C 9.8333455,15.500034 5.1666926,15.500034 1.5,15.500034 C 1.5,10.500011 1.5,5.4999875 1.5,0.4999664 z"
       id="path4160"
       style="opacity:1;fill:url(#radialGradient3449);fill-opacity:1;fill-rule:nonzero;stroke:url(#linearGradient3451);stroke-width:0.99992192;stroke-linecap:butt;stroke-linejoin:round;marker:none;marker-start:none;marker-mid:none;marker-end:none;stroke-miterlimit:4;stroke-dasharray:none;stroke-dashoffset:0;stroke-opacity:1;visibility:visible;display:inline;overflow:visible;enable-background:accumulate" />
    <path
       d="M 12.5,4.2150736 C 12.5,7.6004717 12.5,11.114602 12.5,14.500001 C 9.500001,14.500001 5.5000009,14.500001 2.5,14.500001 C 2.5,10.166664 2.5,5.8333326 2.5,1.5 C 4.5623569,1.5 7.6738997,1.5 9.7362577,1.5"
       id="path2435"
       style="opacity:0.4;fill:none;fill-opacity:1;stroke:url(#linearGradient2666);stroke-width:0.99999994;stroke-linecap:butt;stroke-linejoin:miter;stroke-miterlimit:4;stroke-dasharray:none;stroke-dashoffset:0;stroke-opacity:1;display:inline" />
    <path
       d="M 9.2941205,0.8409023 C 10.142028,3.6448055 9,5.0341186 9,5.0341186 C 9,5.0341186 10.892807,3.7827125 13.171354,4.9318145 C 15.11421,5.9116229 13.207429,3.9237905 13.129895,3.8027685 C 12.586944,2.9552643 10.707454,1.1696619 10.025256,0.8725867 C 9.9696235,0.8483603 9.5814385,0.8409023 9.2941205,0.8409023 z"
       id="path3330"
       style="opacity:0.3;fill:#000000;fill-opacity:1;fill-rule:evenodd;stroke:none;stroke-width:1px;stroke-linecap:butt;stroke-linejoin:miter;stroke-opacity:1;display:inline" />
    <path
       d="M 9.2941205,0.8409023 C 10.281641,0.8409023 10,4.0219212 10,4.0219212 C 10,4.0219212 12.272472,3.5211898 13.171354,4.9318145 C 13.334236,5.1874273 13.207429,3.9237905 13.129895,3.8027685 C 12.586944,2.9552643 10.707454,1.1696619 10.025256,0.8725867 C 9.9696235,0.8483603 9.5814385,0.8409023 9.2941205,0.8409023 z"
       id="path4474"
       style="fill:url(#linearGradient2662);fill-opacity:1;fill-rule:evenodd;stroke:none;stroke-width:1px;stroke-linecap:butt;stroke-linejoin:miter;stroke-opacity:1;display:inline" />
    <path
       d="M 2.5238093,0.99999996 C 2.2344802,0.99999996 2,1.4723225 2,2.0551278 L 2,9.77264 C 2.0006633,9.8375644 2.0147975,9.898961 2.0389717,9.9419263 C 2.0631449,9.9848916 2.0951471,10.005497 2.1272107,9.9987385 L 12.902721,6.5620336 C 12.95815,6.5444258 12.999225,6.4489566 13,6.3359346 L 13,4.2589134 C 13,4.2589134 9.494977,0.99999996 9.494977,0.99999996 L 2.5238093,0.99999996 z"
       id="path3879"
       style="opacity:0.2;fill:url(#linearGradient2645);fill-opacity:1;fill-rule:evenodd;stroke:none;stroke-width:1.00213289;stroke-linecap:round;stroke-linejoin:round;stroke-miterlimit:4;stroke-dasharray:none;stroke-dashoffset:0;stroke-opacity:1" />
    <path
       d="M 9.7907032,0.49996655 C 10.273093,0.66176251 12.864657,2.504091 13.541387,3.7803849 C 13.541387,7.6866881 13.541387,4.0617877 13.541387,7.968091 C -0.32613212,13.329645 1.4602649,0.49996655 9.7907032,0.49996655 z"
       id="path3883"
       style="fill:none;stroke:url(#linearGradient2639);stroke-width:0.99992192;stroke-linecap:butt;stroke-linejoin:round;stroke-miterlimit:4;stroke-dasharray:none;stroke-dashoffset:0;stroke-opacity:1;display:inline" />
    <path
       d="M 10.487268,5.3852941 C 10.34569,5.3794807 10.204616,5.386079 10.066635,5.3974844 C 8.8523961,5.4978569 7.8026017,6.2546214 7.3989322,7.4576572 C 7.1501961,8.1989596 7.1999031,8.9842045 7.4653483,9.7128758 L 2,14.655173 L 2,15 L 5.2330483,15 L 5.162933,14.052649 L 6.9450909,14.41836 L 7.1554075,12.723898 L 8.8268727,13.089609 L 9.9227338,12.126569 C 11.041828,12.5011 12.177424,12.309767 13,11.687716 C 13,10.331686 13,8.988289 13,7.6283221 C 12.864214,7.6635617 12.706643,7.6548452 12.557228,7.5917514 C 12.19246,7.4377193 11.986423,7.0260558 12.103386,6.6774738 C 12.191109,6.416039 12.442868,6.2465765 12.712198,6.2508104 C 12.801975,6.2522221 12.897739,6.2732545 12.988931,6.3117627 C 12.993868,6.3138473 12.995127,6.3217738 13,6.3239528 C 13,6.1120462 13,5.90162 13,5.6900535 C 12.643634,5.5911376 12.284869,5.6313824 12.003763,5.7997666 C 11.927451,5.7615365 11.861848,5.7114217 11.782377,5.6778631 C 11.353207,5.4966366 10.912001,5.4027344 10.487268,5.3852941 z"
       id="path5316"
       style="opacity:0.1;fill:url(#linearGradient3473);fill-opacity:1;fill-rule:nonzero;stroke:none;stroke-width:0.91176528;stroke-linecap:butt;stroke-linejoin:miter;marker:none;marker-start:none;marker-mid:none;marker-end:none;stroke-miterlimit:4;stroke-dasharray:none;stroke-dashoffset:0;stroke-opacity:1;visibility:visible;display:inline;overflow:visible;enable-background:accumulate" />
    <path
       d="M 10.487268,5.0021524 C 10.34569,4.9963386 10.204616,5.0029369 10.066635,5.0143427 C 8.8523961,5.1147152 7.8026017,5.8714793 7.3989322,7.0745152 C 7.1501961,7.8158176 7.1999031,8.6010624 7.4653483,9.3297342 L 2,14.310345 C 2,14.310345 2.0149571,15 2.0149571,15 C 3.0974915,15 4.180021,15 5.2625564,15 L 5.162933,13.669507 L 6.9450909,14.035218 L 7.1554075,12.340756 L 8.8268727,12.706467 L 9.9227338,11.743428 C 11.041828,12.117959 12.177424,11.926626 13,11.304575 C 13,9.9485441 13,8.6051473 13,7.2451807 C 12.864214,7.28042 12.706643,7.2717035 12.557228,7.2086097 C 12.19246,7.0545779 11.986423,6.6429137 12.103386,6.2943321 C 12.191109,6.0328972 12.442868,5.8634352 12.712198,5.8676686 C 12.801975,5.86908 12.897739,5.8901127 12.988931,5.9286206 C 12.993868,5.9307055 12.995127,5.9386321 13,5.9408107 C 13,5.7289045 13,5.5184782 13,5.3069114 C 12.643634,5.2079955 12.284869,5.2482407 12.003763,5.4166248 C 11.927451,5.3783948 11.861848,5.3282797 11.782377,5.294721 C 11.353207,5.1134948 10.912001,5.0195927 10.487268,5.0021524 z"
       id="path5283"
       style="opacity:0.4;fill:url(#linearGradient3470);fill-opacity:1;fill-rule:nonzero;stroke:none;stroke-width:0.91176528;stroke-linecap:butt;stroke-linejoin:miter;marker:none;marker-start:none;marker-mid:none;marker-end:none;stroke-miterlimit:4;stroke-dasharray:none;stroke-dashoffset:0;stroke-opacity:1;visibility:visible;display:inline;overflow:visible;enable-background:accumulate" />
    <path
       d="M 9.3538692,13 C 9.1785623,12.367847 9.0032553,11.632151 8.8279488,11 C 7.9444028,11 7.0608568,11 6.1773103,11 C 6.0002505,11.632151 5.8231907,12.367847 5.6461308,13 C 5.0974207,13 4.5487105,13 4,13 C 4.8327075,10.333333 5.6654146,7.6666659 6.4981218,5 C 7.1625345,5 7.8269471,5 8.4913594,5 C 9.3275731,7.6666659 10.163787,10.333333 11,13 C 10.45129,13 9.902579,13 9.3538692,13 z M 8.4492864,10 C 8.2591862,9.175831 7.5737643,6.2416239 7.5,6 C 7.2551167,7.1339705 6.879654,8.8833614 6.5717506,10 C 7.1975958,10 7.8234409,10 8.4492864,10 z"
       id="path3477"
       style="font-size:30.51395607px;font-style:normal;font-variant:normal;font-weight:bold;font-stretch:normal;opacity:0.4;fill:#ffffff;fill-opacity:1;stroke:none;stroke-width:1px;stroke-linecap:butt;stroke-linejoin:miter;stroke-opacity:1;font-family:Droid Sans;-inkscape-font-specification:Droid Sans Bold" />
    <path
       d="M 9.3538692,12 C 9.1785623,11.367847 9.0032553,10.632151 8.8279488,10 C 7.9444028,10 7.0608568,10 6.1773103,10 C 6.0002505,10.632151 5.8231907,11.367847 5.6461308,12 C 5.0974207,12 4.5487105,12 4,12 C 4.8327075,9.3333328 5.6654146,6.6666659 6.4981218,4 C 7.1625345,4 7.8269471,4 8.4913594,4 C 9.3275731,6.6666659 10.163787,9.3333328 11,12 C 10.45129,12 9.902579,12 9.3538692,12 z M 8.4492864,9 C 8.2591862,8.175831 7.5737643,5.2416239 7.5,5 C 7.2551167,6.1339705 6.879654,7.8833614 6.5717506,9 C 7.1975958,9 7.8234409,9 8.4492864,9 z"
       id="text3893"
       style="font-size:30.51395607px;font-style:normal;font-variant:normal;font-weight:bold;font-stretch:normal;fill:url(#linearGradient3466);fill-opacity:1;stroke:none;stroke-width:1px;stroke-linecap:butt;stroke-linejoin:miter;stroke-opacity:1;font-family:Droid Sans;-inkscape-font-specification:Droid Sans Bold" />
  </g>
</svg>

<?xml version="1.0" encoding="UTF-8" standalone="no"?>
<!-- Created with Inkscape (http://www.inkscape.org/) -->
<svg id="svg3481" xmlns="http://www.w3.org/2000/svg" height="16" width="16" version="1.0" xmlns:xlink="http://www.w3.org/1999/xlink">
 <defs id="defs3483">
  <linearGradient id="linearGradient3451" y2="2.9062" gradientUnits="userSpaceOnUse" x2="-51.786" gradientTransform="matrix(.27686 0 0 .30502 19.641 -.68561)" y1="53.624" x1="-51.786">
   <stop id="stop4963" style="stop-color:#643340" offset="0"/>
   <stop id="stop4965" style="stop-color:#a77a86" offset="1"/>
  </linearGradient>
  <radialGradient id="radialGradient3449" gradientUnits="userSpaceOnUse" cy="11.49" cx="14.239" gradientTransform="matrix(0 1.0835 -1.8167 0 24.709 -13.135)" r="18">
   <stop id="stop4953" style="stop-color:#e694bb" offset="0"/>
   <stop id="stop4955" style="stop-color:#d3819a" offset=".26238"/>
   <stop id="stop4957" style="stop-color:#b25a64" offset=".70495"/>
   <stop id="stop4959" style="stop-color:#98313d" offset="1"/>
  </radialGradient>
  <linearGradient id="linearGradient2666" y2="46.017" gradientUnits="userSpaceOnUse" x2="24" gradientTransform="matrix(.27273 0 0 .30232 1.4546 .74420)" y1="2" x1="24">
   <stop id="stop3213" style="stop-color:#fff" offset="0"/>
   <stop id="stop3215" style="stop-color:#fff;stop-opacity:0" offset="1"/>
  </linearGradient>
  <linearGradient id="linearGradient2662" y2="5.4565" gradientUnits="userSpaceOnUse" x2="36.358" gradientTransform="matrix(.30920 0 0 .37669 .47615 .10718)" y1="8.059" x1="32.892">
   <stop id="stop8591" style="stop-color:#fefefe" offset="0"/>
   <stop id="stop8593" style="stop-color:#cbcbcb" offset="1"/>
  </linearGradient>
  <linearGradient id="linearGradient2645" y2="24.628" gradientUnits="userSpaceOnUse" x2="20.055" gradientTransform="matrix(.23946 0 0 .48234 1.7531 -1.879)" y1="15.298" x1="16.626">
   <stop id="stop2687" style="stop-color:#fff" offset="0"/>
   <stop id="stop2689" style="stop-color:#fff;stop-opacity:0" offset="1"/>
  </linearGradient>
  <linearGradient id="linearGradient2639" y2="6.5436" gradientUnits="userSpaceOnUse" x2="34.103" gradientTransform="matrix(.34287 0 0 .34087 -.68759 .32953)" y1="4.8577" x1="35.517">
   <stop id="stop4269" style="stop-color:#c4c4c4" offset="0"/>
   <stop id="stop4271" style="stop-color:#c4c4c4;stop-opacity:0" offset="1"/>
  </linearGradient>
  <linearGradient id="linearGradient3473" y2="12" spreadMethod="reflect" gradientUnits="userSpaceOnUse" x2="91" gradientTransform="matrix(.38547 0 0 .31695 -20.882 1.5819)" y1="28" x1="75.854">
   <stop id="stop4002" offset="0"/>
   <stop id="stop4004" style="stop-opacity:0" offset="1"/>
  </linearGradient>
  <linearGradient id="linearGradient3470" y2="12" spreadMethod="reflect" gradientUnits="userSpaceOnUse" x2="91" gradientTransform="matrix(.38547 0 0 .31695 -20.882 1.1988)" y1="28" x1="75.854">
   <stop id="stop5295" style="stop-color:#fff" offset="0"/>
   <stop id="stop5297" style="stop-color:#fff;stop-opacity:0" offset="1"/>
  </linearGradient>
  <linearGradient id="linearGradient3466" y2=".19081" gradientUnits="userSpaceOnUse" x2="24.239" gradientTransform="matrix(.35298 0 0 .36576 .43501 -.67525)" y1="44.11" x1="24.239">
   <stop id="stop4108" style="stop-color:#51293c" offset="0"/>
   <stop id="stop4110" style="stop-color:#876374" offset="1"/>
  </linearGradient>
 </defs>
 <g id="layer1">
  <path id="path4160" style="stroke-linejoin:round;stroke-width:.99992;stroke:url(#linearGradient3451);fill:url(#radialGradient3449)" d="m1.5 0.49997h8.4412c0.4418 0.16179 2.9388 2.1328 3.5588 3.4091v11.591h-12v-15z"/>
  <path id="path2435" style="opacity:.4;stroke:url(#linearGradient2666);fill:none" d="m12.5 4.2151v10.285h-10v-13h7.2363"/>
  <path id="path3330" style="opacity:.3;fill-rule:evenodd" d="m9.2941 0.8409c0.8479 2.8039-0.2941 4.1932-0.2941 4.1932s1.893-1.2514 4.171-0.1023c1.943 0.9798 0.036-1.008-0.041-1.129-0.543-0.8475-2.423-2.6331-3.105-2.9302-0.0554-0.02424-0.4436-0.0317-0.7309-0.0317z"/>
  <path id="path4474" style="fill:url(#linearGradient2662);fill-rule:evenodd" d="m9.2941 0.8409c0.9879 0 0.7059 3.181 0.7059 3.181s2.272-0.5007 3.171 0.9099c0.163 0.2556 0.036-1.008-0.041-1.129-0.543-0.8475-2.423-2.6331-3.105-2.9302-0.0554-0.02424-0.4436-0.0317-0.7309-0.0317z"/>
  <path id="path3879" style="opacity:.2;fill:url(#linearGradient2645);fill-rule:evenodd" d="m2.5238 1c-0.2893 0-0.5238 0.4723-0.5238 1.0551v7.7175c0.0007 0.065 0.0148 0.1264 0.039 0.1693 0.0241 0.043 0.0561 0.0631 0.0882 0.0568l10.776-3.4367c0.055-0.0176 0.096-0.113 0.097-0.2261v-2.077l-3.505-3.2589h-6.9712z"/>
  <path id="path3883" style="stroke-linejoin:round;stroke:url(#linearGradient2639);stroke-width:.99992;fill:none" d="m9.7907 0.49997c0.4823 0.16179 3.0743 2.0041 3.7503 3.2804v4.1877c-13.867 5.3619-12.081-7.4681-3.7503-7.4681z"/>
  <path id="path5316" style="opacity:.1;fill:url(#linearGradient3473)" d="m10.487 5.3853c-0.141-0.0058-0.282 0.0008-0.42 0.0122-1.2146 0.1004-2.2644 0.8571-2.6681 2.0602-0.2487 0.7413-0.199 1.5265 0.0664 2.2552l-5.4653 4.9421v0.345h3.233l-0.0701-0.947 1.7822 0.365 0.2103-1.694 1.6715 0.366 1.0958-0.963c1.1193 0.374 2.2543 0.183 3.0773-0.439v-4.0597c-0.136 0.0353-0.293 0.0265-0.443-0.0365-0.365-0.1541-0.571-0.5657-0.454-0.9143 0.088-0.2615 0.34-0.4309 0.609-0.4267 0.09 0.0014 0.186 0.0225 0.277 0.061 0.005 0.002 0.006 0.01 0.011 0.0122v-0.6339c-0.356-0.099-0.715-0.0587-0.996 0.1097-0.077-0.0383-0.142-0.0884-0.222-0.1219-0.429-0.1813-0.87-0.2752-1.295-0.2926z"/>
  <path id="path5283" style="opacity:.4;fill:url(#linearGradient3470)" d="m10.487 5.0022c-0.141-0.0059-0.282 0.0007-0.42 0.0121-1.2146 0.1004-2.2644 0.8572-2.6681 2.0602-0.2487 0.7413-0.199 1.5266 0.0664 2.2552l-5.4653 4.9803 0.015 0.69h3.2476l-0.0997-1.33 1.7822 0.365 0.2103-1.694 1.6715 0.365 1.0958-0.963c1.1193 0.375 2.2543 0.184 3.0773-0.438v-4.0598c-0.136 0.0352-0.293 0.0265-0.443-0.0366-0.365-0.154-0.571-0.5657-0.454-0.9143 0.088-0.2614 0.34-0.4309 0.609-0.4266 0.09 0.0014 0.186 0.0224 0.277 0.0609 0.005 0.0021 0.006 0.01 0.011 0.0122v-0.6339c-0.356-0.0989-0.715-0.0587-0.996 0.1097-0.077-0.0382-0.142-0.0883-0.222-0.1219-0.429-0.1812-0.87-0.2751-1.295-0.2925z"/>
  <path id="path3477" style="opacity:.4;fill:#fff" d="m9.3539 13c-0.1753-0.632-0.3506-1.368-0.526-2h-2.6506c-0.177 0.632-0.3541 1.368-0.5312 2h-1.6461c0.8327-2.667 1.6654-5.3333 2.4981-8h1.9933c0.8362 2.6667 1.6726 5.333 2.5086 8h-1.6461zm-0.9046-3c-0.1901-0.8242-0.8755-3.7584-0.9493-4-0.2449 1.134-0.6203 2.8834-0.9282 4h1.8775z"/>
  <path id="text3893" style="fill:url(#linearGradient3466)" d="m9.3539 12c-0.1753-0.632-0.3506-1.368-0.526-2h-2.6506c-0.177 0.632-0.3541 1.368-0.5312 2h-1.6461c0.8327-2.6667 1.6654-5.3333 2.4981-8h1.9933c0.8362 2.6667 1.6726 5.3333 2.5086 8h-1.6461zm-0.9046-3c-0.1901-0.8242-0.8755-3.7584-0.9493-4-0.2449 1.134-0.6203 2.8834-0.9282 4h1.8775z"/>
 </g>
</svg>
